X:1
T:When Our Lord Shall Come Again
T:When Our Lord Shall Come Again
T:R. L. Ferguson
T:Johnson Oatman, Jr., 1908
T:Public Domain Courtesy of the Cyber Hymnal™
T:Public Domain Courtesy of the Cyber Hymnal™
C:R. L. Ferguson
Z:Public Domain
Z:Courtesy of the Cyber Hymnal™
%%score ( 1 2 ) ( 3 4 )
L:1/8
Q:1/4=112
M:4/4
K:G
V:1 treble 
V:2 treble 
V:3 bass 
V:4 bass 
V:1
 DG | B4- [GB][GB][GB][FA] | [FA] ([EG-] G4) GG | G4- [EG][EA][EG][CE] | D6 DG | %5
w: 1.~When up-|on the clouds of heav-|* en, * Christ shall|come to earth a- gain,|Will the world|
w: 2.~Will His|com- ing bring re- joic-|* ing? * Or will|it bring tears and pain?|Are you rea-|
w: 3.~Will you|join in la- men- ta-|* tion? * Or the|an- gel’s glad re- frain?|Will you help|
w: 4.~Work and|pray till Je- sus calls|* you, * Help to|ga- ther in the grain;|Then with joy|
 B4- [GB][GB][GB][FA] | [FA] ([EG-] G4) GA | B4- [GB]G [GB]>[FA] | G6 ||"^Refrain" (3(GA)B | %10
w: be glad to see Him,|* When * our Lord|shall come a- gain? *|||
w: dy to re- ceive Him,|* When * our Lord|shall come a- gain? There’ll|be|sing- * ing,|
w: His peo- ple crown Him,|* When * our Lord|shall come a- gain? *|||
w: you’ll meet the Sav- ior|* When * our Lord|shall come a- gain. *|||
 d<(d- d4) [GB]>[GB] | [FA]/ ([DG-]3/2 G4) G>G | G/ (G3/2- G4) [EG]>[EA] | B6 (3(GA)B | d<(d- d4) | %15
w: |||||
w: there’ll be * shout- ing|There’ll be * sor- row,|there’ll be * pain; There’ll|be weep- * ing,|there’ll be *|
w: |||||
w: |||||
 [GB]>[GB] | [FA]/ G4- [EG]3/2GA | z2 [GB]G [GB]>[FA] x2 | G4- [DG]2 |] %19
w: ||||
w: pray- ing,|When our Lord shall come|* a- gain. *||
w: ||||
w: ||||
V:2
 x2 | G2 G2 x4 | x2 (EE EE) x2 | E2 E2 x4 | (B,B,B,B, B,2) x2 | G2 G2 x4 | x2 (EE EE) x2 | %7
 (G2 G2 G) x3 | (GDE>E D2) || x2 | x2 (G>GG<G) x2 | x2 (E<E D<D) x2 | x2 (E>E E<E) x2 | %13
 (F>FF>F F2) x2 | x2 (G>GG<G) | x2 | x/ D3/2 E3/2 E/ E/ x7/2 | (B4- G G) G x | G>D E>E x2 |] %19
V:3
 z2 | ([G,D]2 [G,D]2 [G,D])[G,D][G,D][D,C] | [E,B,] ([E,B,][E,B,][E,B,][E,B,][E,B,]) z2 | %3
w: |~ * * ~ ~ ~|~ ~ * * * *|
 ([C,C]2 [C,C]2 [C,C])[C,C][C,C]([C,G,] | [G,,G,][G,,G,][B,,G,][D,G,] G,2) z2 | %5
w: ~ * * ~ ~ ~||
 ([G,D]2 [G,D]2 [G,D])[G,D][G,D][D,C] | [E,B,] ([E,B,][E,B,][E,B,][E,B,][E,B,]) z2 | %7
w: ~ * * ~ ~ ~|~ ~ * * * *|
 ([D,D]2 [D,D]2 [D,D])[D,B,] [D,D]>[D,C] | (B,B,C>C B,2) || z2 | %10
w: ~ * * ~ ~ ~|~ * * * *||
 z2 [G,B,]>[G,B,] [G,B,]<[G,B,] [G,D]>[G,D] | [D,C]<[G,B,] [G,C]<[G,C] [G,B,]<[G,B,] z2 | %12
w: There’ll be sing- ing, there’ll be|shout- ing, shout- ing, shout- ing|
 z2 [E,B,]>[E,B,] [E,B,]<[E,B,] [E,B,]>[C,E] | [B,,^D]>[B,,D] [B,,D]>[B,,D] [B,,D]2 z2 | %14
w: There’ll be sor- row, there’ll be|pain, heart rend- ing pain;|
 z2 [G,B,]>[G,B,] [G,B,]<[G,B,] | [G,D]>[G,D] | [D,C]<[G,B,] [E,B,]>[E,B,] [C,C]<([C,C] B,,C,) | %17
w: There’ll be weep- ing,|~ ~|~ ~ there’ll be pray- ing, * *|
 z2 D (D[D,D][D,B,][D,D]>[D,C]) | B,>B, C>C [G,,G,B,]2 |] %19
w: When our * * * *|* Lord shall come a-|
V:4
 x2 | x8 | x8 | x8 | x4 G,2 x2 | x8 | x8 | x8 | [G,,G,]6 || x2 | x8 | x8 | x8 | x8 | x6 | x2 | x8 | %17
 D,4- x4 | [G,,G,]4- x2 |] %19

